status/48/gpm-primary-000-charging.svg

<?xml version="1.0" encoding="UTF-8" standalone="no"?>
<!-- Created with Inkscape (http://www.inkscape.org/) -->

<svg
   xmlns:svg="http://www.w3.org/2000/svg"
   xmlns="http://www.w3.org/2000/svg"
   xmlns:xlink="http://www.w3.org/1999/xlink"
   version="1.1"
   width="48"
   height="48"
   id="svg2434">
  <defs
     id="defs2436">
    <linearGradient
       id="linearGradient4151-767-958">
      <stop
         id="stop4470"
         style="stop-color:#979797;stop-opacity:1"
         offset="0" />
      <stop
         id="stop4472"
         style="stop-color:#d5d5d5;stop-opacity:1"
         offset="1" />
    </linearGradient>
    <linearGradient
       x1="10.014043"
       y1="26.841442"
       x2="17.354513"
       y2="26.841442"
       id="linearGradient2565"
       xlink:href="#linearGradient4151-767-958"
       gradientUnits="userSpaceOnUse"
       gradientTransform="matrix(1.0094925,0,0,1.1341181,-0.2931655,-9.7946981)"
       spreadMethod="reflect" />
    <linearGradient
       id="linearGradient3539-33">
      <stop
         id="stop4440"
         style="stop-color:white;stop-opacity:1"
         offset="0" />
      <stop
         id="stop4442"
         style="stop-color:white;stop-opacity:0"
         offset="1" />
    </linearGradient>
    <linearGradient
       x1="24"
       y1="16.525082"
       x2="24"
       y2="13.284962"
       id="linearGradient2598"
       xlink:href="#linearGradient3539-33"
       gradientUnits="userSpaceOnUse" />
    <linearGradient
       id="linearGradient10033-588-29">
      <stop
         id="stop4434"
         style="stop-color:black;stop-opacity:0.5411765"
         offset="0" />
      <stop
         id="stop4436"
         style="stop-color:white;stop-opacity:0.16949153"
         offset="1" />
    </linearGradient>
    <linearGradient
       x1="19.776941"
       y1="8.1215363"
       x2="19.776941"
       y2="18.184662"
       id="linearGradient2596"
       xlink:href="#linearGradient10033-588-29"
       gradientUnits="userSpaceOnUse" />
    <linearGradient
       id="linearGradient4126-65-434">
      <stop
         id="stop4464"
         style="stop-color:black;stop-opacity:1"
         offset="0" />
      <stop
         id="stop4466"
         style="stop-color:black;stop-opacity:0"
         offset="1" />
    </linearGradient>
    <radialGradient
       cx="23.857143"
       cy="40"
       r="17.142857"
       fx="23.857143"
       fy="40"
       id="radialGradient2579"
       xlink:href="#linearGradient4126-65-434"
       gradientUnits="userSpaceOnUse"
       gradientTransform="matrix(1,0,0,0.5,0,20)" />
    <linearGradient
       id="linearGradient4173-908-339">
      <stop
         id="stop4476"
         style="stop-color:#b2b2b2;stop-opacity:1"
         offset="0" />
      <stop
         id="stop4478"
         style="stop-color:#e6e6e6;stop-opacity:1"
         offset="1" />
    </linearGradient>
    <linearGradient
       x1="21.714285"
       y1="10.285714"
       x2="27.038286"
       y2="10.285714"
       id="linearGradient2589"
       xlink:href="#linearGradient4173-908-339"
       gradientUnits="userSpaceOnUse"
       gradientTransform="matrix(0.9937327,0,0,1.4174272,0.3700224,-9.9139801)" />
    <linearGradient
       id="linearGradient3564-531">
      <stop
         id="stop4452"
         style="stop-color:white;stop-opacity:0.37288135"
         offset="0" />
      <stop
         id="stop4454"
         style="stop-color:#a9a9a9;stop-opacity:0"
         offset="1" />
    </linearGradient>
    <linearGradient
       x1="24"
       y1="16.525082"
       x2="24"
       y2="13.284962"
       id="linearGradient2585"
       xlink:href="#linearGradient3564-531"
       gradientUnits="userSpaceOnUse" />
    <linearGradient
       id="linearGradient10033-588-987">
      <stop
         id="stop4446"
         style="stop-color:#e5e5e5;stop-opacity:1"
         offset="0" />
      <stop
         id="stop4448"
         style="stop-color:#b2b2b2;stop-opacity:1"
         offset="1" />
    </linearGradient>
    <linearGradient
       x1="15.036061"
       y1="11.205624"
       x2="19.776941"
       y2="18.184662"
       id="linearGradient2583"
       xlink:href="#linearGradient10033-588-987"
       gradientUnits="userSpaceOnUse" />
    <linearGradient
       id="linearGradient6924-448-120">
      <stop
         id="stop4458"
         style="stop-color:#f2f2f2;stop-opacity:1"
         offset="0" />
      <stop
         id="stop4460"
         style="stop-color:#f2f2f2;stop-opacity:0"
         offset="1" />
    </linearGradient>
    <linearGradient
       x1="16.07143"
       y1="19.5"
       x2="15.785715"
       y2="30"
       id="linearGradient2594"
       xlink:href="#linearGradient6924-448-120"
       gradientUnits="userSpaceOnUse"
       gradientTransform="matrix(1.0354209,0,0,1.1506849,-1.167754,-7.4383551)" />
  </defs>
  <g
     id="layer1">
    <path
       d="m 23.871553,1.4862933 c -5.241891,0 -14.3852592,1.406792 -14.3852592,5.9079871 0,0.2805638 0,33.7616066 0,34.0537996 0,3.909876 6.4512262,6.065626 14.3852592,6.065626 7.934033,0 14.642153,-2.155753 14.642153,-6.065626 0,-0.231428 0,-33.8223713 0,-34.0537996 0,-4.5017139 -9.441013,-5.9079871 -14.642153,-5.9079871 z"
       id="path9129"
       style="opacity:0.3;fill:url(#linearGradient2565);fill-opacity:1;fill-rule:nonzero;stroke:white;stroke-width:0.97258759;stroke-linecap:butt;stroke-linejoin:round;stroke-miterlimit:10;stroke-opacity:0.23469388;stroke-dasharray:none;stroke-dashoffset:0;marker:none;visibility:visible;display:block;overflow:visible" />
    <path
       d="m 36.857142,14.071428 a 12.857142,5.5 0 1 1 -25.714284,0 12.857142,5.5 0 1 1 25.714284,0 z"
       transform="matrix(1.0519204,0,0,0.8226711,-1.2460907,-4.5761575)"
       id="path9137"
       style="opacity:0.3;fill:url(#linearGradient2596);fill-opacity:1;fill-rule:nonzero;stroke:url(#linearGradient2598);stroke-width:1.02188385;stroke-linecap:butt;stroke-linejoin:round;stroke-miterlimit:10;stroke-opacity:1;stroke-dasharray:none;stroke-dashoffset:0;marker:none;visibility:visible;display:block;overflow:visible" />
    <path
       d="M 41,40 A 17.142857,8.5714283 0 1 1 6.7142868,40 17.142857,8.5714283 0 1 1 41,40 z"
       transform="matrix(0.361547,0,0,0.3705221,15.452966,-9.3113675)"
       id="path9139"
       style="opacity:0.2;fill:url(#radialGradient2579);fill-opacity:1;fill-rule:nonzero;stroke:none;stroke-width:2.47287893;marker:none;visibility:visible;display:block;overflow:visible" />
    <path
       d="m 24.109745,0.89018843 c -2.343303,-0.0427626 -4.602261,0.61013747 -4.602261,1.51108407 0,0.089355 0,3.0250184 0,3.1180775 0,1.2452329 2.612018,1.9731655 4.602261,1.9731655 1.99024,0 4.382771,-0.7279326 4.38277,-1.9731655 0,-0.073706 0,-2.4586075 0,-3.1180775 0,-0.6594702 -2.01741,-1.46791904 -4.38277,-1.51108407 z"
       id="path9141"
       style="opacity:0.3;fill:url(#linearGradient2589);fill-opacity:1;fill-rule:nonzero;stroke:#919191;stroke-width:1.01496899;stroke-linecap:butt;stroke-linejoin:round;stroke-miterlimit:10;stroke-opacity:1;stroke-dasharray:none;stroke-dashoffset:0;marker:none;visibility:visible;display:block;overflow:visible" />
    <path
       d="m 36.857142,14.071428 a 12.857142,5.5 0 1 1 -25.714284,0 12.857142,5.5 0 1 1 25.714284,0 z"
       transform="matrix(0.3494179,0,0,0.2681896,15.613971,-1.7912834)"
       id="path9143"
       style="opacity:0.4;fill:url(#linearGradient2583);fill-opacity:1;fill-rule:nonzero;stroke:url(#linearGradient2585);stroke-width:3.31557727;stroke-linecap:butt;stroke-linejoin:round;stroke-miterlimit:10;stroke-opacity:1;stroke-dasharray:none;stroke-dashoffset:0;marker:none;visibility:visible;display:block;overflow:visible" />
    <path
       d="m 19.5625,13.080906 c -1.709857,-0.120975 -2.805251,1.625319 -2.4375,3.181721 0,1.564426 0,3.128853 0,4.693279 -1.265813,0.301354 -2.165597,1.536459 -2,2.839445 0.01192,3.43881 -0.02399,6.879167 0.01821,10.316998 0.276388,1.934917 2.476719,2.470848 4.12632,2.550515 0.785688,0.31032 2.67273,-0.582712 2.355466,0.766543 0.0098,3.670283 -0.01956,5.768542 0.01471,9.437782 1.719773,2.178372 4.74922,3.473377 4.735289,-0.126173 0,-3.345037 0,-6.690073 0,-10.03511 1.994774,-0.03486 4.363849,0.212492 5.915654,-1.295738 0.899012,-1.059363 0.491598,-2.5007 0.584346,-3.767653 -0.01105,-2.902487 0.02228,-5.806363 -0.017,-8.707967 0.203526,-1.591923 -2.145359,-1.479963 -1.983004,-2.746754 -0.02046,-1.721911 0.04117,-3.453727 -0.03125,-5.169388 -0.261367,-1.838588 -2.786924,-2.587731 -4.061204,-1.263715 -1.039166,0.970848 -0.546059,2.489748 -0.657546,3.739487 -0.164563,1.092345 0.637436,3.172589 -1.195225,2.562795 -0.884519,-0.29418 -2.862519,0.574802 -3.054775,-0.378012 -0.02067,-1.552273 0.04146,-3.114543 -0.03125,-4.660555 -0.191875,-1.079808 -1.173831,-1.939348 -2.28125,-1.9375 z"
       id="path3441"
       style="opacity:0.2;fill:white;fill-opacity:1;fill-rule:nonzero;stroke:none;stroke-width:1;marker:none;visibility:visible;display:block;overflow:visible" />
    <path
       d="M 19.5625,13.955906 C 18.295031,13.936853 18,14.916324 18,15.237156 c 0,0.310591 0,5.63117 0,6.21875 -1.182457,0.356839 -2,0.943629 -2,1.9375 l 0,10.4375 c 0,2.070913 3.494163,2.11116 6.5,2.0625 l 0,11.053141 3,0 0,-11.053141 c 2.853544,0.04382 6.5,0.0674 6.5,-2 l 0,-10.6875 c 0,-0.973113 -0.839433,-1.521185 -2,-1.84375 l 0,-6.125 C 30,15.17725 29.837053,13.975067 28.5625,13.955906 27.295031,13.936853 27,14.916324 27,15.237156 c 0,0.285619 0,4.496151 0,5.71875 -0.962258,-0.0434 -1.912744,-0.03125 -2.71875,-0.03125 -0.977019,0 -2.135557,-0.0097 -3.28125,0.0625 l 0,-5.75 c 0,-0.05991 -0.162947,-1.262089 -1.4375,-1.28125 z"
       id="path2605"
       style="opacity:0.8;fill:black;fill-opacity:1;fill-rule:nonzero;stroke:none;stroke-width:1;marker:none;visibility:visible;display:block;overflow:visible" />
    <path
       d="M 13,12.205479 13,31.520549 18,33 18,13.767123 c 0,0 2.422624,-0.01581 5,-0.801597 C 17.599509,12.697333 11.698443,11.122312 10,9 c 1.467086,2.407436 3,3.205479 3,3.205479 z"
       id="path9135"
       style="opacity:0.4;fill:url(#linearGradient2594);fill-opacity:1;fill-rule:nonzero;stroke:none;stroke-width:0.97799999;marker:none;visibility:visible;display:block;overflow:visible" />
  </g>
</svg>

<?xml version="1.0" encoding="UTF-8" standalone="no"?>
<!-- Created with Inkscape (http://www.inkscape.org/) -->
<svg
   xmlns:dc="http://purl.org/dc/elements/1.1/"
   xmlns:cc="http://creativecommons.org/ns#"
   xmlns:rdf="http://www.w3.org/1999/02/22-rdf-syntax-ns#"
   xmlns:svg="http://www.w3.org/2000/svg"
   xmlns="http://www.w3.org/2000/svg"
   xmlns:xlink="http://www.w3.org/1999/xlink"
   xmlns:sodipodi="http://sodipodi.sourceforge.net/DTD/sodipodi-0.dtd"
   xmlns:inkscape="http://www.inkscape.org/namespaces/inkscape"
   width="48px"
   height="48px"
   id="svg2434"
   sodipodi:version="0.32"
   inkscape:version="0.46"
   sodipodi:docname="gpm-primary-000-charging.svg"
   inkscape:output_extension="org.inkscape.output.svg.inkscape">
  <defs
     id="defs2436">
    <linearGradient
       id="linearGradient4151-767-958"
       inkscape:collect="always">
      <stop
         id="stop4470"
         offset="0"
         style="stop-color:#979797;stop-opacity:1" />
      <stop
         id="stop4472"
         offset="1"
         style="stop-color:#d5d5d5;stop-opacity:1" />
    </linearGradient>
    <linearGradient
       inkscape:collect="always"
       xlink:href="#linearGradient4151-767-958"
       id="linearGradient2565"
       gradientUnits="userSpaceOnUse"
       gradientTransform="matrix(1.0094925,0,0,1.1341181,-0.2931655,-9.7946981)"
       spreadMethod="reflect"
       x1="10.014043"
       y1="26.841442"
       x2="17.354513"
       y2="26.841442" />
    <linearGradient
       id="linearGradient3539-33">
      <stop
         id="stop4440"
         offset="0"
         style="stop-color:#ffffff;stop-opacity:1;" />
      <stop
         id="stop4442"
         offset="1"
         style="stop-color:#ffffff;stop-opacity:0;" />
    </linearGradient>
    <linearGradient
       inkscape:collect="always"
       xlink:href="#linearGradient3539-33"
       id="linearGradient2598"
       gradientUnits="userSpaceOnUse"
       x1="24"
       y1="16.525082"
       x2="24"
       y2="13.284962" />
    <linearGradient
       id="linearGradient10033-588-29">
      <stop
         style="stop-color:#000000;stop-opacity:0.5411765;"
         offset="0"
         id="stop4434" />
      <stop
         style="stop-color:#ffffff;stop-opacity:0.16949153;"
         offset="1"
         id="stop4436" />
    </linearGradient>
    <linearGradient
       inkscape:collect="always"
       xlink:href="#linearGradient10033-588-29"
       id="linearGradient2596"
       gradientUnits="userSpaceOnUse"
       x1="19.776941"
       y1="8.1215363"
       x2="19.776941"
       y2="18.184662" />
    <linearGradient
       inkscape:collect="always"
       id="linearGradient4126-65-434">
      <stop
         style="stop-color:#000000;stop-opacity:1;"
         offset="0"
         id="stop4464" />
      <stop
         style="stop-color:#000000;stop-opacity:0;"
         offset="1"
         id="stop4466" />
    </linearGradient>
    <radialGradient
       inkscape:collect="always"
       xlink:href="#linearGradient4126-65-434"
       id="radialGradient2579"
       gradientUnits="userSpaceOnUse"
       gradientTransform="matrix(1,0,0,0.5,0,20)"
       cx="23.857143"
       cy="40"
       fx="23.857143"
       fy="40"
       r="17.142857" />
    <linearGradient
       id="linearGradient4173-908-339"
       inkscape:collect="always">
      <stop
         id="stop4476"
         offset="0"
         style="stop-color:#b2b2b2;stop-opacity:1" />
      <stop
         id="stop4478"
         offset="1"
         style="stop-color:#e6e6e6;stop-opacity:1" />
    </linearGradient>
    <linearGradient
       inkscape:collect="always"
       xlink:href="#linearGradient4173-908-339"
       id="linearGradient2589"
       gradientUnits="userSpaceOnUse"
       gradientTransform="matrix(0.9937327,0,0,1.4174272,0.3700224,-9.9139801)"
       x1="21.714285"
       y1="10.285714"
       x2="27.038286"
       y2="10.285714" />
    <linearGradient
       id="linearGradient3564-531">
      <stop
         style="stop-color:#ffffff;stop-opacity:0.37288135;"
         offset="0"
         id="stop4452" />
      <stop
         style="stop-color:#a9a9a9;stop-opacity:0;"
         offset="1"
         id="stop4454" />
    </linearGradient>
    <linearGradient
       inkscape:collect="always"
       xlink:href="#linearGradient3564-531"
       id="linearGradient2585"
       gradientUnits="userSpaceOnUse"
       x1="24"
       y1="16.525082"
       x2="24"
       y2="13.284962" />
    <linearGradient
       id="linearGradient10033-588-987">
      <stop
         style="stop-color:#e5e5e5;stop-opacity:1"
         offset="0"
         id="stop4446" />
      <stop
         style="stop-color:#b2b2b2;stop-opacity:1"
         offset="1"
         id="stop4448" />
    </linearGradient>
    <linearGradient
       inkscape:collect="always"
       xlink:href="#linearGradient10033-588-987"
       id="linearGradient2583"
       gradientUnits="userSpaceOnUse"
       x1="15.036061"
       y1="11.205624"
       x2="19.776941"
       y2="18.184662" />
    <linearGradient
       inkscape:collect="always"
       id="linearGradient6924-448-120">
      <stop
         style="stop-color:#f2f2f2;stop-opacity:1;"
         offset="0"
         id="stop4458" />
      <stop
         style="stop-color:#f2f2f2;stop-opacity:0;"
         offset="1"
         id="stop4460" />
    </linearGradient>
    <linearGradient
       inkscape:collect="always"
       xlink:href="#linearGradient6924-448-120"
       id="linearGradient2594"
       gradientUnits="userSpaceOnUse"
       gradientTransform="matrix(1.0354209,0,0,1.1506849,-1.167754,-7.4383551)"
       x1="16.07143"
       y1="19.5"
       x2="15.785715"
       y2="30" />
  </defs>
  <sodipodi:namedview
     id="base"
     pagecolor="#ffffff"
     bordercolor="#666666"
     borderopacity="1.0"
     inkscape:pageopacity="0.0"
     inkscape:pageshadow="2"
     inkscape:zoom="7"
     inkscape:cx="24"
     inkscape:cy="24"
     inkscape:current-layer="layer1"
     showgrid="true"
     inkscape:grid-bbox="true"
     inkscape:document-units="px"
     inkscape:window-width="640"
     inkscape:window-height="679"
     inkscape:window-x="798"
     inkscape:window-y="134" />
  <metadata
     id="metadata2439">
    <rdf:RDF>
      <cc:Work
         rdf:about="">
        <dc:format>image/svg+xml</dc:format>
        <dc:type
           rdf:resource="http://purl.org/dc/dcmitype/StillImage" />
      </cc:Work>
    </rdf:RDF>
  </metadata>
  <g
     id="layer1"
     inkscape:label="Layer 1"
     inkscape:groupmode="layer">
    <path
       style="opacity:0.29999999999999999;fill:url(#linearGradient2565);fill-opacity:1;fill-rule:nonzero;stroke:#ffffff;stroke-width:0.97258758999999995;stroke-linecap:butt;stroke-linejoin:round;marker:none;marker-start:none;marker-mid:none;marker-end:none;stroke-miterlimit:10;stroke-dasharray:none;stroke-dashoffset:0;stroke-opacity:0.23469387999999999;visibility:visible;display:block;overflow:visible"
       d="M 23.871553,1.4862933 C 18.629662,1.4862933 9.4862938,2.8930853 9.4862938,7.3942804 C 9.4862938,7.6748442 9.4862938,41.155887 9.4862938,41.44808 C 9.4862938,45.357956 15.93752,47.513706 23.871553,47.513706 C 31.805586,47.513706 38.513706,45.357953 38.513706,41.44808 C 38.513706,41.216652 38.513706,7.6257087 38.513706,7.3942804 C 38.513706,2.8925665 29.072693,1.4862933 23.871553,1.4862933 z"
       id="path9129"
       sodipodi:nodetypes="csszssz" />
    <path
       sodipodi:type="arc"
       style="opacity:0.29999999999999999;fill:url(#linearGradient2596);fill-opacity:1;fill-rule:nonzero;stroke:url(#linearGradient2598);stroke-width:1.02188385000000004;stroke-linecap:butt;stroke-linejoin:round;marker:none;marker-start:none;marker-mid:none;marker-end:none;stroke-miterlimit:10;stroke-dasharray:none;stroke-dashoffset:0;stroke-opacity:1;visibility:visible;display:block;overflow:visible"
       id="path9137"
       sodipodi:cx="24"
       sodipodi:cy="14.071428"
       sodipodi:rx="12.857142"
       sodipodi:ry="5.5"
       d="M 36.857142,14.071428 A 12.857142,5.5 0 1 1 11.142858,14.071428 A 12.857142,5.5 0 1 1 36.857142,14.071428 z"
       transform="matrix(1.0519204,0,0,0.8226711,-1.2460907,-4.5761575)" />
    <path
       transform="matrix(0.361547,0,0,0.3705221,15.452966,-9.3113675)"
       d="M 41,40 A 17.142857,8.5714283 0 1 1 6.7142868,40 A 17.142857,8.5714283 0 1 1 41,40 z"
       sodipodi:ry="8.5714283"
       sodipodi:rx="17.142857"
       sodipodi:cy="40"
       sodipodi:cx="23.857143"
       id="path9139"
       style="opacity:0.20000000000000001;fill:url(#radialGradient2579);fill-opacity:1;fill-rule:nonzero;stroke:none;stroke-width:2.47287892999999981;stroke-linecap:butt;stroke-linejoin:round;marker:none;marker-start:none;marker-mid:none;marker-end:none;stroke-miterlimit:10;stroke-dasharray:none;stroke-dashoffset:0;stroke-opacity:1;visibility:visible;display:block;overflow:visible"
       sodipodi:type="arc" />
    <path
       sodipodi:nodetypes="csszszz"
       id="path9141"
       d="M 24.109745,0.89018843 C 21.766442,0.84742585 19.507484,1.5003259 19.507484,2.4012725 C 19.507484,2.4906272 19.507484,5.4262909 19.507484,5.51935 C 19.507484,6.7645829 22.119502,7.4925155 24.109745,7.4925155 C 26.099985,7.4925155 28.492516,6.7645829 28.492515,5.51935 C 28.492515,5.4456438 28.492515,3.0607425 28.492515,2.4012725 C 28.492515,1.7418023 26.475105,0.93335346 24.109745,0.89018843 z"
       style="opacity:0.29999999999999999;fill:url(#linearGradient2589);fill-opacity:1;fill-rule:nonzero;stroke:#919191;stroke-width:1.01496899000000007;stroke-linecap:butt;stroke-linejoin:round;marker:none;marker-start:none;marker-mid:none;marker-end:none;stroke-miterlimit:10;stroke-dasharray:none;stroke-dashoffset:0;stroke-opacity:1;visibility:visible;display:block;overflow:visible" />
    <path
       sodipodi:type="arc"
       style="opacity:0.40000000000000002;fill:url(#linearGradient2583);fill-opacity:1;fill-rule:nonzero;stroke:url(#linearGradient2585);stroke-width:3.31557726999999991;stroke-linecap:butt;stroke-linejoin:round;marker:none;marker-start:none;marker-mid:none;marker-end:none;stroke-miterlimit:10;stroke-dasharray:none;stroke-dashoffset:0;stroke-opacity:1;visibility:visible;display:block;overflow:visible"
       id="path9143"
       sodipodi:cx="24"
       sodipodi:cy="14.071428"
       sodipodi:rx="12.857142"
       sodipodi:ry="5.5"
       d="M 36.857142,14.071428 A 12.857142,5.5 0 1 1 11.142858,14.071428 A 12.857142,5.5 0 1 1 36.857142,14.071428 z"
       transform="matrix(0.3494179,0,0,0.2681896,15.613971,-1.7912834)" />
    <path
       id="path3441"
       d="M 19.5625,13.080906 C 17.852643,12.959931 16.757249,14.706225 17.125,16.262627 C 17.125,17.827053 17.125,19.39148 17.125,20.955906 C 15.859187,21.25726 14.959403,22.492365 15.125,23.795351 C 15.13692,27.234161 15.101014,30.674518 15.143214,34.112349 C 15.419602,36.047266 17.619933,36.583197 19.269534,36.662864 C 20.055222,36.973184 21.942264,36.080152 21.625,37.429407 C 21.634766,41.09969 21.60544,43.197949 21.639711,46.867189 C 23.359484,49.045561 26.388931,50.340566 26.375,46.741016 C 26.375,43.395979 26.375,40.050943 26.375,36.705906 C 28.369774,36.671041 30.738849,36.918398 32.290654,35.410168 C 33.189666,34.350805 32.782252,32.909468 32.875,31.642515 C 32.863955,28.740028 32.897276,25.836152 32.858004,22.934548 C 33.06153,21.342625 30.712645,21.454585 30.875,20.187794 C 30.854538,18.465883 30.916171,16.734067 30.84375,15.018406 C 30.582383,13.179818 28.056826,12.430675 26.782546,13.754691 C 25.74338,14.725539 26.236487,16.244439 26.125,17.494178 C 25.960437,18.586523 26.762436,20.666767 24.929775,20.056973 C 24.045256,19.762793 22.067256,20.631775 21.875,19.678961 C 21.854327,18.126688 21.916463,16.564418 21.84375,15.018406 C 21.651875,13.938598 20.669919,13.079058 19.5625,13.080906 z"
       style="opacity:0.20000000000000001;fill:#ffffff;fill-opacity:1;fill-rule:nonzero;stroke:none;stroke-width:1;stroke-linecap:butt;stroke-linejoin:round;marker:none;marker-start:none;marker-mid:none;marker-end:none;stroke-miterlimit:10;stroke-dasharray:none;stroke-dashoffset:0;stroke-opacity:0.40419946000000001;visibility:visible;display:block;overflow:visible"
       sodipodi:nodetypes="cccccccccccccccccsccc" />
    <path
       sodipodi:nodetypes="cscccccccccccsscsccc"
       style="opacity:0.80000000000000004;fill:#000000;fill-opacity:1;fill-rule:nonzero;stroke:none;stroke-width:1;stroke-linecap:butt;stroke-linejoin:round;marker:none;marker-start:none;marker-mid:none;marker-end:none;stroke-miterlimit:10;stroke-dasharray:none;stroke-dashoffset:0;stroke-opacity:0.40419946000000001;visibility:visible;display:block;overflow:visible"
       d="M 19.5625,13.955906 C 18.295031,13.936853 18,14.916324 18,15.237156 C 18,15.547747 18,20.868326 18,21.455906 C 16.817543,21.812745 16,22.399535 16,23.393406 L 16,33.830906 C 16,35.901819 19.494163,35.942066 22.5,35.893406 L 22.5,46.946547 L 25.5,46.946547 L 25.5,35.893406 C 28.353544,35.937224 32,35.960805 32,33.893406 L 32,23.205906 C 32,22.232793 31.160567,21.684721 30,21.362156 L 30,15.237156 C 30,15.17725 29.837053,13.975067 28.5625,13.955906 C 27.295031,13.936853 27,14.916324 27,15.237156 C 27,15.522775 27,19.733307 27,20.955906 C 26.037742,20.912501 25.087256,20.924656 24.28125,20.924656 C 23.304231,20.924656 22.145693,20.914907 21,20.987156 L 21,15.237156 C 21,15.17725 20.837053,13.975067 19.5625,13.955906 z"
       id="path2605" />
    <path
       style="opacity:0.40000000000000002;fill:url(#linearGradient2594);fill-opacity:1;fill-rule:nonzero;stroke:none;stroke-width:0.97799999000000004;stroke-linecap:butt;stroke-linejoin:round;marker:none;marker-start:none;marker-mid:none;marker-end:none;stroke-miterlimit:10;stroke-dasharray:none;stroke-dashoffset:0;stroke-opacity:1;visibility:visible;display:block;overflow:visible"
       d="M 13,12.205479 L 13,31.520549 L 18,33 L 18,13.767123 C 18,13.767123 20.422624,13.751311 23,12.965526 C 17.599509,12.697333 11.698443,11.122312 10,9 C 11.467086,11.407436 13,12.205479 13,12.205479 z"
       id="path9135"
       sodipodi:nodetypes="ccccccc" />
  </g>
</svg>
